www/assets/duotune/abstract/abs042.svg

<svg width="24" height="24" viewBox="0 0 24 24" fill="none" xmlns="http://www.w3.org/2000/svg">
<path d="M18 21.6C16.6 20.4 9.1 20.3 6.3 21.2C5.7 21.4 5.1 21.2 4.7 20.8L2 18C4.2 15.8 10.8 15.1 15.8 15.8C16.2 18.3 17 20.5 18 21.6ZM18.8 2.8C18.4 2.4 17.8 2.20001 17.2 2.40001C14.4 3.30001 6.9 3.2 5.5 2C6.8 3.3 7.4 5.5 7.7 7.7C9 7.9 10.3 8 11.7 8C15.8 8 19.8 7.2 21.5 5.5L18.8 2.8Z" fill="currentColor"/>
<path opacity="0.3" d="M21.2 17.3C21.4 17.9 21.2 18.5 20.8 18.9L18 21.6C15.8 19.4 15.1 12.8 15.8 7.8C18.3 7.4 20.4 6.70001 21.5 5.60001C20.4 7.00001 20.2 14.5 21.2 17.3ZM8 11.7C8 9 7.7 4.2 5.5 2L2.8 4.8C2.4 5.2 2.2 5.80001 2.4 6.40001C2.7 7.40001 3.00001 9.2 3.10001 11.7C3.10001 15.5 2.40001 17.6 2.10001 18C3.20001 16.9 5.3 16.2 7.8 15.8C8 14.2 8 12.7 8 11.7Z" fill="currentColor"/>
</svg>

<?xml version="1.0" encoding="UTF-8"?>
<svg id="Camada_1" xmlns="http://www.w3.org/2000/svg" version="1.1" viewBox="0 0 24 24">
  <!-- Generator: Adobe Illustrator 29.0.0, SVG Export Plug-In . SVG Version: 2.1.0 Build 186)  -->
  <defs>
    <style>
      .st0, .st1 {
        fill: #fff;
      }

      .st1 {
        isolation: isolate;
        opacity: .3;
      }
    </style>
  </defs>
  <path class="st0" d="M18,21.6c-1.4-1.2-8.9-1.3-11.7-.4-.6.2-1.2,0-1.6-.4l-2.7-2.8c2.2-2.2,8.8-2.9,13.8-2.2.4,2.5,1.2,4.7,2.2,5.8ZM18.8,2.8c-.4-.4-1-.6-1.6-.4-2.8.9-10.3.8-11.7-.4,1.3,1.3,1.9,3.5,2.2,5.7,1.3.2,2.6.3,4,.3,4.1,0,8.1-.8,9.8-2.5l-2.7-2.7Z"/>
  <path class="st1" d="M21.2,17.3c.2.6,0,1.2-.4,1.6l-2.8,2.7c-2.2-2.2-2.9-8.8-2.2-13.8,2.5-.4,4.6-1.1,5.7-2.2-1.1,1.4-1.3,8.9-.3,11.7ZM8,11.7c0-2.7-.3-7.5-2.5-9.7l-2.7,2.8c-.4.4-.6,1-.4,1.6.3,1,.6,2.8.7,5.3,0,3.8-.7,5.9-1,6.3,1.1-1.1,3.2-1.8,5.7-2.2.2-1.6.2-3.1.2-4.1Z"/>
</svg>
